img/subtract-1.svg

<svg fill="none" height="24" viewBox="0 0 23 24" width="23" xmlns="http://www.w3.org/2000/svg"><path clip-rule="evenodd" d="m16.5187 18.2926c3.0071-.359 5.6254-2.2119 5.9545-3.9048.5185-2.667.4757-6.50822.4757-6.50822 0-5.20633-3.4111-6.73239-3.4111-6.73239-1.7199-.789921-4.6732-1.1221048-7.7415-1.14719h-.0753c-3.06832.0250852-6.01971.357269-7.73972 1.14719 0 0-3.411196 1.52606-3.411196 6.73239 0 .31563-.001631.64761-.00333.99321-.004716.9598-.009949 2.02461.017812 3.13611.123874 5.0915.933454 10.1095 5.640924 11.3555 2.17052.5745 4.03401.6947 5.53491.6122 2.7217-.1509 4.2496-.9713 4.2496-.9713l-.0897-1.9748s-1.945.6133-4.1294.5386c-2.16417-.0742-4.44886-.2334-4.79889-2.8905-.03232-.2334-.04849-.4829-.04849-.745 0 0 2.12448.5192 4.81688.6426 1.6463.0755 3.1902-.0965 4.7583-.2836zm2.4066-3.7053v-6.30396c0-1.28839-.328-2.31223-.9868-3.0697-.6796-.75747-1.5695-1.14577-2.674-1.14577-1.2782 0-2.2461.49123-2.8859 1.47382l-.6222 1.04284-.6221-1.04284c-.6399-.98259-1.60775-1.47382-2.8858-1.47382-1.10465 0-1.99452.3883-2.67402 1.14577-.65894.75747-.98699 1.78131-.98699 3.0697v6.30396h2.49753v-6.11867c0-1.28981.54269-1.94448 1.62821-1.94448 1.2002 0 1.80187.7766 1.80187 2.31223v3.34912h2.4828v-3.34912c0-1.53563.6015-2.31223 1.8017-2.31223 1.0855 0 1.6282.65467 1.6282 1.94448v6.11867z" fill="#000" fill-rule="evenodd"/></svg>

<svg width="23" height="24" viewBox="0 0 23 24" fill="none" xmlns="http://www.w3.org/2000/svg">
<path fill-rule="evenodd" clip-rule="evenodd" d="M16.5187 18.2926C19.5258 17.9336 22.1441 16.0807 22.4732 14.3878C22.9917 11.7208 22.9489 7.87958 22.9489 7.87958C22.9489 2.67325 19.5378 1.14719 19.5378 1.14719C17.8179 0.357269 14.8646 0.0250852 11.7963 0H11.721C8.65268 0.0250852 5.70129 0.357269 3.98128 1.14719C3.98128 1.14719 0.570084 2.67325 0.570084 7.87958C0.570084 8.19521 0.568453 8.52719 0.566754 8.87279C0.562038 9.83259 0.556805 10.8974 0.584566 12.0089C0.70844 17.1004 1.51802 22.1184 6.22549 23.3644C8.39601 23.9389 10.2595 24.0591 11.7604 23.9766C14.4821 23.8257 16.01 23.0053 16.01 23.0053L15.9203 21.0305C15.9203 21.0305 13.9753 21.6438 11.7909 21.5691C9.62673 21.4949 7.34204 21.3357 6.99201 18.6786C6.95969 18.4452 6.94352 18.1957 6.94352 17.9336C6.94352 17.9336 9.068 18.4528 11.7604 18.5762C13.4067 18.6517 14.9506 18.4797 16.5187 18.2926ZM18.9253 14.5873V8.28334C18.9253 6.99495 18.5973 5.97111 17.9385 5.21364C17.2589 4.45617 16.369 4.06787 15.2645 4.06787C13.9863 4.06787 13.0184 4.5591 12.3786 5.54169L11.7564 6.58453L11.1343 5.54169C10.4944 4.5591 9.52655 4.06787 8.2485 4.06787C7.14385 4.06787 6.25398 4.45617 5.57448 5.21364C4.91554 5.97111 4.58749 6.99495 4.58749 8.28334V14.5873H7.08502V8.46863C7.08502 7.17882 7.62771 6.52415 8.71323 6.52415C9.91343 6.52415 10.5151 7.30075 10.5151 8.83638V12.1855H12.9979V8.83638C12.9979 7.30075 13.5994 6.52415 14.7996 6.52415C15.8851 6.52415 16.4278 7.17882 16.4278 8.46863V14.5873H18.9253Z" fill="black"/>
</svg>
